X:1
T:Come, Oh, Come to Me
T:Come, Oh, Come to Me
T:James Milton Black
T:Lizzie Akers, 1902
T:Public Domain Courtesy of the Cyber Hymnal™
T:Public Domain Courtesy of the Cyber Hymnal™
C:James Milton Black
Z:Public Domain
Z:Courtesy of the Cyber Hymnal™
%%score ( 1 2 ) ( 3 4 )
L:1/8
Q:1/4=105
M:4/4
K:Eb
V:1 treble 
V:2 treble 
V:3 bass 
V:4 bass 
V:1
 E>[EF] [EG]>[FA] [GB]>[Ac] [GB]>[FA] | [EG]2 [DF]2 E4 | [Ec]>[Ec] [EB]>[EB] [DA]>[DA] [EG]>[EG] | %3
w: 1.~Wea- ry bur- dened wand- ’rer, There is|rest for thee,|At the feet of Je- sus, In His|
w: 2.~Bring Him all thy bur- dens, All thy|guilt and sin,|Mer- cy’s door is o- pen, Rise and|
w: 3.~Lin- ger then no long- er, Come just|now to Him;|Ere the sha- dows ga- ther, And thy|
w: 4.~He will bid thee wel- come, At the|bless- èd cross,|Turn to joy thy mourn- ing, Turn to|
 [DF]2 [Ac]2 [GB]4 | [EG]>[EG] [EG]>[FA] [GB]>[GB] [GB]>[Ge] | [Fd]2 [Fd]2 [Fd]4 | %6
w: love so free;|List- en to His mes- sage, Words for-|ev- er blest,|
w: en- ter in.|Je- sus there is wait- ing, Pa- tient-|ly for thee,|
w: light grows dim.|Thou hast long been wait- ing For some|bet- ter time,|
w: gold thy dross.|He will lead thee gent- ly, All a-|long the way,|
 [Ge]>[Ge] [Ge]>[Ac] [GB]>[GB] [GB]>[FA] | [EG]2 [DF]2 [B,E]4 ||"^Refrain" B4- B>G F>G | E6 z2 | %10
w: Oh, thou hea- vy la- den, “Come to|Me and rest.”|||
w: Hear Him gent- ly call- ing, “Come, oh,|come to Me.”|“Come, * oh come to|Me,”|
w: But to- day He’s call- ing, Come and|claim Him thine.|||
w: In the path that shin- eth, Un- to|per- fect day.|||
 c4- [Ec]>[EB] [DA]>[EG] | F6 z2 | [EG]4- [EG]>[EG] [DA]>[EB] | [Ec]2 [Ed]2 [Ee]2 [Ac]2 | %14
w: ||||
w: “Come, oh come to Me,”||Je- * sus now is|wait- ing, call- ing|
w: ||||
w: ||||
 [GB]4- [GB]>[EG] [DF]>[DG] | E6 z2 |] %16
w: ||
w: “Come, * oh come to|Me.”|
w: ||
w: ||
V:2
 E3/2 x13/2 | x4 E4 | x8 | x8 | x8 | x8 | x8 | x8 || (G>G G>G G2) x2 | (E>EE>E E2) x2 | %10
 E3/2 E/ E3/2 E/ x4 | (D>D D>D D2) x2 | x8 | x8 | x8 | (B,2 C>C B,2) x2 |] %16
V:3
 [E,G,]>[E,A,] [E,B,]>[E,B,] [E,E]>[E,E] [E,E]>[A,,C] | [B,,B,]2 [B,,A,]2 [E,G,]4 | %2
w: ~ ~ ~ ~ ~ ~ ~ ~|~ ~ ~|
 A,>A, [G,B,]>[G,B,] [F,B,]>[F,B,] [E,B,]>[E,B,] | [B,,B,]2 [B,,D]2 [E,E]4 | %4
w: ~ ~ ~ ~ ~ ~ ~ ~|~ ~ ~|
 [E,B,]>[E,B,] [E,B,]>[E,B,] [E,E]>[E,E] [E,E]>[E,B,] | [B,,B,]2 [B,,B,]2 [B,,B,]4 | %6
w: ~ ~ ~ ~ ~ ~ ~ ~|~ ~ ~|
 [E,B,]>[E,B,] [E,B,]>[E,E] [E,E]>[E,E] [E,E]>[A,,C] | [B,,B,]2 [B,,B,]2 [E,G,]4 || %8
w: ~ ~ ~ ~ ~ ~ ~ ~|~ ~ ~|
 [E,E]>[E,E] [E,E]>[E,E] [E,E]2 z2 | [E,G,]>[E,G,] [E,G,]>[E,G,] [E,G,]2 z2 | %10
w: “Come, oh, come to Me,”|“Come, oh, come to Me,”|
 A,>A, A,>A, A,>[G,B,] [F,B,]>[E,B,] | [B,,B,]>[B,,B,] [B,,B,]>[B,,B,] [B,,B,]2 z2 | %12
w: “Come, oh, come to Me, poor sin- ner,|Come, oh, come to Me,”|
 [E,B,]2 [E,B,]2 [E,B,]>[E,B,] [F,B,]>[G,B,] | A,2 [A,B,]2 [A,C]2 [A,E]2 | %14
w: Je- sus now is wait- ing,|~ ~ ~ ~|
 [B,E]4- [B,E]>B, [B,,A,]>[B,,B,] | G,2 A,>A, G,2 z2 |] %16
w: ~ * ~ ~ ~|“come to Me,” *|
V:4
 x8 | x8 | A,>A, x6 | x8 | x8 | x8 | x8 | x8 || x8 | x8 | A,>A, A,>A, A,3/2 x5/2 | x8 | x8 | %13
 A,2 x6 | x11/2 B,/ x2 | E,6 x2 |] %16

